!!!SOCIAL_FUNCTION:	songs with treatment of the sick
!!!PDT:	1943
!!!OTL: No_12_I_Am_Trying_to_Cure_This_Sick_Man.krn
!!!REG: British Columbia
**kern	**kern
*staff2	*staff1
=1-	=1-
=	=
*clefF4	*clefF4
*k[b-]	*k[b-]
*M2/4	*M2/4
8GG/L	2c\
8GG/J	.
8GG/L	.
8GG/J	.
=2	=2
8GG/L	12c\L
.	12A\
8GG/J	.
.	12A\J
4r	4c\
=3	=3
2r	2c\
=4	=4
2r	8c\L
.	8A\J
.	8A\
.	8r
=5	=5
2r	2A\
=6	=6
2r	8c\L
.	8A\J
.	8A\
.	8r
=7	=7
2r	4F\
.	4F\
=8	=8
2r	4F\
.	8F\
.	8r
=9	=9
2r	4A\
.	4c\
=10	=10
2r	12c\L
.	12A\
.	12A\J
.	12c\L
.	12A\
.	12F\J
=11	=11
2r	2A\
=12	=12
2r	8c\L
.	8A\J
.	8A\
.	8r
=13	=13
2r	2A\
=14	=14
2r	8c\L
.	8A\J
.	8A\
.	8r
=15	=15
2r	2F\
=16	=16
2r	4A\
.	4A\
==:|!	==:|!
*-	*-
